pieces/shapes/kb.svg

<svg height="200" viewBox="0 0 200 200" width="200" xmlns="http://www.w3.org/2000/svg"><filter id="a" height="150%" width="150%"><feGaussianBlur in="SourceAlpha" result="blur" stdDeviation="3"/><feColorMatrix in="blur" result="blurAlpha" values="2 0 0 0 0 0 2 0 0 0 0 0 2 0 0 0 0 0 0.5 0"/><feOffset dx="4.5" dy="4.5" in="blurAlpha" result="offsetBlur"/><feBlend in="SourceGraphic" in2="offsetBlur"/></filter><path d="M68.787 24.645L24.645 68.787v62.426l44.142 44.142h62.426l44.142-44.142V68.787l-44.142-44.142zM88 67.857h24V88h20.143v24H112v20.143H88V112H67.857V88H88z" fill="#333" fill-rule="evenodd" stroke="#000" stroke-width="6" stroke-linejoin="round" filter="url(#a)"/></svg>

<svg width="200" height="200" viewBox="0 0 200 200" fill="none" xmlns="http://www.w3.org/2000/svg">
<path fill-rule="evenodd" clip-rule="evenodd" d="M68.787 24.645L24.645 68.787V131.213L68.787 175.355H131.213L175.355 131.213V68.787L131.213 24.645H68.787ZM88 67.857H112V88H132.143V112H112V132.143H88V112H67.857V88H88V67.857Z" fill="#333333" stroke="black" stroke-width="6" stroke-linejoin="round"/>
</svg>
